X:1
T:A Word of Prayer
T:A Word of Prayer
T:Edmund Simon Lorenz
T:Frances McKinnon Morton, 1915
T:Public Domain Courtesy of the Cyber Hymnal™
C:Edmund Simon Lorenz
Z:Public Domain
Z:Courtesy of the Cyber Hymnal™
%%score ( 1 2 ) ( 3 4 )
L:1/8
Q:1/4=100
M:6/8
K:C
V:1 treble 
V:2 treble 
V:3 bass 
V:4 bass 
V:1
 [EG] | [EG]2 [EG] [^D^F][EG][=FA] | [EG]2 [CE] C2 [EG]/[EG]/ | [FA]2 [FA] [GB]2 [FA] | %4
w: 1.~A|word of prayer when the|day be- gins Brings a|day of bless- ing|
w: 2.~A|word of prayer when the|heart is sad Brings you|com- fort, peace and|
w: 3.~A|word of prayer when the|heart is lone Brings a|Friend to un- der-|
w: 4.~Al-|ways a prayer to the|God a- bove Brings a|bless- ing sweet and|
 [EG]3- [EG]2 [EG] | [EG]2 [DF] [DF][EG][FA] | [FA]2 [EG] [EG]2 [EG]/[EA]/ | %7
w: sure; * A|word of prayer when the|twi- light dims Brings a|
w: rest; * A|word of prayer when the|days are glad Adds a|
w: stand; * A|word of prayer when your|strength is gone Brings the|
w: true; * En-|folds your heart in His|ten- der love, Lends His|
 [DB]2 [DB] [Ec]2 [CA] | [B,G]3- [B,G]2 ||"^Refrain" G | [Fd]2 [E^c] [Fd]2 [Ge]/[Fd]/ | %11
w: night of rest se-|cure. *|||
w: joy to hours most|blest. *|A|word of prayer in the|
w: clasp of a~might- y|hand. *|||
w: bound- less strength to|you. *|||
 [Ec]3 [EG]2 [Ec] | [Fc]2 [Ac] [GB]2 [FA] | [EG]3- [EG]2 [EG] | [EG][DF][EG] [FB]2 [FA] | %15
w: ||||
w: morn- ing, A|word of prayer at|night! * When|sore- ly dis- tressed, A|
w: ||||
w: ||||
 [FA][EG][Ec] [Ge]2 [Fd]/[Fd]/ | [Ec]3 [FB]3 | [Ec]3- [Ec]2 |] %18
w: |||
w: prayer brings you rest, Mak- ing|all things|right! *|
w: |||
w: |||
V:2
 x | x6 | x3 C2 x | x6 | x6 | x6 | x6 | x6 | x5 || G | x6 | x6 | x6 | x6 | x6 | x6 | x6 | x5 |] %18
V:3
 [C,C] | [C,C]2 [C,C] [C,C][C,C][C,C] | [C,C]2 [C,G,] [C,E,]2 [C,C]/[C,C]/ | %3
 [F,C]2 [F,C] [F,C]2 [F,C] | [C,C]3- [C,C]2 [C,C] | [G,B,]2 [G,B,] [G,B,][G,B,][G,B,] | %6
 [C,C]2 [C,C] [C,C]2 [C,G,]/[C,G,]/ | [D,G,]2 [D,G,] [D,^F,]2 [D,F,] | [G,,G,]3- [G,,G,]2 || %9
 [G,B,] | [G,B,]2 [G,^A,] [G,B,]2 [G,B,]/G,/ | [C,G,]3 [C,C]2 [C,G,] | [F,A,]2 [F,C] [F,C]2 [F,C] | %13
 [C,C]3- [C,C]2 [C,C] | [G,B,][G,B,][G,B,] [G,D]2 [G,B,] | [C,C][C,C][C,G,] [C,C]2 [F,A,]/[F,A,]/ | %16
 G,3 [G,,D]3 | [C,C]3- [C,C]2 |] %18
V:4
 x | x6 | x6 | x6 | x6 | x6 | x6 | x6 | x5 || x | x11/2 G,/ | x6 | x6 | x6 | x6 | x6 | G,3 x3 | %17
 x5 |] %18

